X: 2
T: The Sweetness Of Mary
R: strathspey
M: 4/4
L: 1/8
K: Gmaj
(3DGA|B2 (3BAG E2 (3EGA|B<d c<e d2 (3def|g>f e>d d>c B>c|d<g B<G A2 (3AGA|
B2 (3BAG E2 (3EGA|B<d c<e d2 (3def|g>f e>d d>c B>c|d<g B<A G2:|
g>a|b>d g<b a>d f<a|g>f e<g d2 c<B|e>d c<e d>c B>c|d<g B<G A2 g>a|
b>d g<b a>d f<a|g>f e<g d2 c<B|e>G c<e d>c B>c|d<g B<A G2:|
